src/assets/svg/icons/angular-icon.svg

<svg width="80px" height="80px" viewBox="0 0 96 101" fill="none" xmlns="http://www.w3.org/2000/svg">
<path d="M0.787399 16.7627L47.3065 0.18811L95.0783 16.468L87.3433 78.0149L47.3065 100.188L7.89608 78.3096L0.787399 16.7627Z" fill="#E23237"/>
<path d="M95.0783 16.468L47.3065 0.18811V100.188L87.3432 78.0519L95.0783 16.468Z" fill="#B52E31"/>
<path d="M47.38 11.8642L18.3933 76.3576L29.2218 76.1735L35.0414 61.6245H61.0449L67.417 76.3576L77.7667 76.5418L47.38 11.8642ZM47.454 32.5272L57.2512 53.0057H38.8348L47.454 32.5272Z" fill="white"/>
</svg>

<svg xmlns="http://www.w3.org/2000/svg" width="80" height="80" viewBox="0 0 96 101" fill="none" xmlns:v="https://vecta.io/nano"><path d="M.787 16.763L47.307.188l47.772 16.28-7.735 61.547-40.037 22.173L7.896 78.31.787 16.763z" fill="#e23237"/><path d="M95.078 16.468L47.307.188v100l40.037-22.136 7.735-61.584z" fill="#b52e31"/><path d="M47.38 11.864L18.393 76.358l10.829-.184 5.82-14.549h26.003l6.372 14.733 10.35.184L47.38 11.864zm.074 20.663l9.797 20.478H38.835l8.619-20.478z" fill="#fff"/></svg>
